X:150
T:Hill 16
C:Terence "Cuz" Teahan
B:Terry "Cuz" Teahan "Sliabh Luachra on Parade" 1980
Z:Patrick Cavanagh
M:4/4
L:1/8
R:Hornpipe
K:G
| DG B/c/d gedB | gage dBge | d/e/d BG B/c/d AB | agef gedB | 
DG B/c/d gedB | gage dBge | d/e/d BG B/c/d AB | agef g2g2 :| 
| a2ag egdg | g/a/g bg egdg | edef gedB | c/B/A B/A/G AGEG | 
a2ag egdg | g/a/g bg egdg | edef gedB | c/B/A B/A/G A2A2 :|| 

